!!!!SEGMENT: pl-kk--kk-i-292_anonim--stabat-mater.krn
!!!cenid: 17xx:2043
!!!COM: Anonim
!!!COM-rismID: pe30004985
!!!CDT:
!!!CNT:
!!!OTL: Stabat Mater
!!!PDT:
!!!AGN: Sacred
!!!SMS-siglum: PL-Kk
!!!SMS-shelfmark: Kk.I.292
!!!SMS-shelfwork: W
!!!SMS-variant:
!!!SMS-altvar:
!!!NIFC-rismSourceID: 1001144449
!!!NIFC-islandoraID: pl-kk:5060
!!!URL-pdf-islandora: https://repozytorium.nifc.pl/islandora/object/pl-kk%3A5060/datastream/PDF/view
!!!URL-scan: https://polish.musicsources.pl/pl/lokalizacje/galeria/rekopisy/5910 @EN{Scan on Polish Music Herritage in Open Access Website} @PL{Skany w portalu Dziedzictwo Muzyki Polskiej w otwartym dostępie}
!!!ONB-nifc:
!!!AIN: 1 bass
!!!key:
**kern	**text
*Ibass	*
*I"Basso	*
*clefF4	*
*k[b-e-]	*
*g:	*
*M3/4	*
=1	=1
!LO:TX:a:B:t=Adagio	!
!LO:TX:t=P:problem=mixed beam	!
8G\L	Sta-
8GG/J	.
8BB-/L	.
8D/J	.
4G\	-bat
=2	=2
4D\	ſta-
4F#X\	.
4D\	-bat
=3	=3
8D\L	Ma-
8F\	.
8A\	.
8c\	.
8A\	.
8F\J	.
=4	=4
8G\L	.
8B-\	.
8G\	.
8D\J	.
8BB-/L	-ter
8GG/J	.
=5	=5
4G\	do-
4F#X\	.
4G\	-lo-
!!LO:LB:g=original
=6	=6
4D\	-ro-
4D\	-sa
4r	.
=7	=7
8BB-/L	jux-
8D/J	.
4BB-/	.
4BB-/	-ta
=8	=8
4AA/	cru-
4BB-/	-cem
4r	.
=9	=9
*2\right	*
2F\	la-
4F\	-chry-
=10	=10
4F\	-mo-
4BB-/	-sa
4r	.
=11	=11
8D\L	dum
8F#X\	.
8A\	.
8F#\J	.
8D\L	pen-
8F#\J	.
=12	=12
4G\	-de-
4A\	.
4B-\	-bat
!!LO:LB:g=original
=13	=13
4c\	fi-
4d\	.
4D/	-li-
=14	=14
2E-X;\	-us
4r	.
=15	=15
8D\L	dum
8F#X\	.
8A\	.
8F#\J	.
8D\L	pen-
8F#\J	.
=16	=16
4G\	-de-
4A\	.
4B-\	-bat
=17	=17
4c\	fi-
4d\	.
4D/	-li-
=18	=18
2G\	-us
4r	.
!!LO:LB:g=original
=19	=19
*clefF4	*
*k[b-e-]	*
*M3/4	*
8BB-/L	Cu-
8D/J	.
8F/L	.
8D/J	.
4BB-/	.
=20	=20
8F\L	.
8A\	.
8c\	.
8A\J	.
4F\	-jus
=21	=21
8BB-/	a-
8BB-/	-ni-
4AA/	-mam
4BB-/	ge-
=22	=22
4F\	-men-
4F\	-tem
4r	.
=23	=23
4F\	con-
4A\	.
4F\	-tris-
!!LO:LB:g=original
=24	=24
4B-\	-tan-
4F\	.
4BB-/	-tem
=25	=25
8BB-/	et
8BB-/	do-
4AA/	-len-
8BB-/L	.
8D/J	.
=26	=26
2F\	-tem
4r	.
=27	=27
8F\L	per-
8A\	.
8c\	.
8A\J	.
8F\L	-tran-
8A\J	.
=28	=28
4B-\	-si-
4F\	.
4BB-/	-vit
=29	=29
4E-\	gla-
4.F\	.
8F\	-di-
!!LO:LB:g=original
=30	=30
2BB-/	-us
4r	.
=31	=31
8F\L	per-
8A\	.
8c\	.
8A\J	.
8F\L	-tran-
8A\J	.
=32	=32
4B-\	-si-
8F\L	.
8D\J	.
4BB-/	-vit
=33	=33
4E-\	gla-
4.F\	.
8F\	-di-
=34	=34
2.BB-/	-us.
!LO:TX:b:t=Finiſ	!
==	==
*-	*-
!!!EED: Leszek Kubiak
!!!EEV: 2021-03-04
!!!ENC: Tomasz Grochalski
!!!END: 2021-02-16
